;FLAVOR:Marlin
;TIME:7402
;Filament used: 9.58711m
;Layer height: 0.2
;MINX:56.001
;MINY:21
;MINZ:0.2
;MAXX:163.999
;MAXY:198.999
;MAXZ:3
;TARGET_MACHINE.NAME:Creality Ender-3 V3 SE
;Generated with Cura_SteamEngine 5.10.0
M220 S100 ;Reset Feedrate
M221 S100 ;Reset Flowrate

G28 ;Home

M420 S1; Use saved mesh leveling data

G92 E0 ;Reset Extruder
G1 Z2.0 F3000 ;Move Z Axis up
G1 X-3 Y20 Z0.28 F5000.0 ;Move to start position
M190 S60 ; Set bed temperature and wait
M109 S200 ; Set hotend temperature and wait
G1 X-3 Y100.0 Z0.28 F1500.0 E15 ;Draw the first line
G1 X-2 Y100.0 Z0.28 F5000.0 ;Move to side a little
G1 X-2 Y20 Z0.28 F1500.0 E30 ;Draw the second line
G92 E0 ;Reset Extruder
G1 E-1.0000 F1800 ;Retract a bit
G1 Z2.0 F3000 ;Move Z Axis up
G1 E0.0000 F1800 

M82 ;absolute extrusion mode
G92 E0
G92 E0
G1 F2400 E-0.8
;LAYER_COUNT:15
;LAYER:0
M107
G0 F9000 X57.512 Y29.478 Z0.2
;TYPE:SKIRT
G1 F2400 E0
G1 F1800 X57.135 Y30.299 E0.03005
G1 X56.807 Y31.216 E0.06244
G1 X56.561 Y32.157 E0.09479
G1 X56.404 Y32.895 E0.11988
G1 X56.198 Y33.979 E0.15658
G1 X56.074 Y34.821 E0.18489
G1 X56.014 Y35.791 E0.21722
G1 X56.001 Y36.536 E0.242
G1 X56.001 Y183.513 E5.13047
G1 X56.011 Y184.167 E5.15223
G1 X56.055 Y184.981 E5.17934
G1 X56.186 Y185.959 E5.21216
G1 X56.312 Y186.65 E5.23552
G1 X56.549 Y187.793 E5.27435
G1 X56.823 Y188.834 E5.31015
G1 X57.16 Y189.754 E5.34274
G1 X57.572 Y190.634 E5.37505
G1 X58.081 Y191.508 E5.40869
G1 X58.475 Y192.116 E5.43279
G1 X59.123 Y193.064 E5.47098
G1 X59.751 Y193.889 E5.50547
G1 X60.412 Y194.609 E5.53798
G1 X61.13 Y195.265 E5.57032
G1 X61.905 Y195.856 E5.60274
G1 X62.511 Y196.274 E5.62723
G1 X63.499 Y196.922 E5.66653
G1 X64.478 Y197.488 E5.70414
G1 X65.299 Y197.865 E5.73418
G1 X66.216 Y198.193 E5.76658
G1 X67.157 Y198.439 E5.79893
G1 X67.895 Y198.596 E5.82402
G1 X68.979 Y198.802 E5.86072
G1 X69.821 Y198.926 E5.88903
G1 X70.791 Y198.986 E5.92135
G1 X71.536 Y198.999 E5.94613
G1 X148.513 Y198.999 E8.5064
G1 X149.167 Y198.989 E8.52815
G1 X149.981 Y198.945 E8.55527
G1 X150.958 Y198.814 E8.58805
G1 X151.659 Y198.687 E8.61175
G1 X152.803 Y198.449 E8.65061
G1 X153.843 Y198.174 E8.68639
G1 X154.763 Y197.837 E8.71898
G1 X155.708 Y197.39 E8.75375
G1 X156.486 Y196.932 E8.78378
G1 X157.139 Y196.509 E8.80965
G1 X158.039 Y195.896 E8.84587
G1 X158.924 Y195.221 E8.88289
G1 X159.616 Y194.584 E8.91418
G1 X160.271 Y193.863 E8.94657
G1 X160.861 Y193.089 E8.97894
G1 X161.279 Y192.482 E9.00346
G1 X161.911 Y191.519 E9.04177
G1 X162.488 Y190.522 E9.08008
G1 X162.865 Y189.701 E9.11013
G1 X163.193 Y188.784 E9.14252
G1 X163.439 Y187.843 E9.17487
G1 X163.644 Y186.866 E9.20807
G1 X163.801 Y186.033 E9.23627
G1 X163.926 Y185.182 E9.26487
G1 X163.986 Y184.212 E9.2972
G1 X163.999 Y183.463 E9.32211
G1 X163.999 Y36.47 E14.21112
G1 X163.988 Y35.814 E14.23294
G1 X163.945 Y35.025 E14.25922
G1 X163.816 Y34.066 E14.29141
G1 X163.633 Y33.074 E14.32496
G1 X163.448 Y32.197 E14.35477
G1 X163.176 Y31.163 E14.39033
G1 X162.841 Y30.244 E14.42286
G1 X162.41 Y29.329 E14.4565
G1 X161.936 Y28.519 E14.48772
G1 X161.358 Y27.633 E14.5229
G1 X160.871 Y26.929 E14.55138
G1 X160.233 Y26.093 E14.58635
G1 X159.57 Y25.373 E14.61891
G1 X158.848 Y24.718 E14.65133
G1 X158.059 Y24.119 E14.68428
G1 X157.317 Y23.609 E14.71422
G1 X156.511 Y23.082 E14.74625
G1 X155.592 Y22.55 E14.78157
G1 X154.64 Y22.111 E14.81644
G1 X153.789 Y21.808 E14.84648
G1 X152.848 Y21.562 E14.87883
G1 X152.107 Y21.404 E14.90403
G1 X151.014 Y21.197 E14.94103
G1 X150.179 Y21.074 E14.96911
G1 X149.209 Y21.014 E15.00143
G1 X148.305 Y21 E15.0315
G1 X71.499 Y21.001 E17.58608
G1 X70.833 Y21.011 E17.60823
G1 X70.019 Y21.055 E17.63535
G1 X69.041 Y21.186 E17.66816
G1 X68.35 Y21.312 E17.69153
G1 X67.207 Y21.549 E17.73035
G1 X66.174 Y21.821 E17.76588
G1 X65.188 Y22.183 E17.80081
G1 X64.372 Y22.568 E17.83082
G1 X63.53 Y23.059 E17.86324
G1 X62.891 Y23.471 E17.88853
G1 X61.93 Y24.127 E17.92723
G1 X61.111 Y24.751 E17.96148
G1 X60.391 Y25.412 E17.99398
G1 X59.735 Y26.13 E18.02633
G1 X59.144 Y26.905 E18.05875
G1 X58.726 Y27.511 E18.08323
G1 X58.078 Y28.499 E18.12253
G1 X57.512 Y29.478 E18.16014
G0 F9000 X57.876 Y29.645
G1 F1800 X57.499 Y30.466 E18.19019
G1 X57.184 Y31.35 E18.2214
G1 X56.948 Y32.258 E18.25261
G1 X56.795 Y32.978 E18.27709
G1 X56.591 Y34.054 E18.31352
G1 X56.47 Y34.879 E18.34125
G1 X56.413 Y35.815 E18.37244
G1 X56.401 Y36.543 E18.39665
G1 X56.401 Y183.507 E23.2847
G1 X56.411 Y184.161 E23.30645
G1 X56.454 Y184.959 E23.33303
G1 X56.58 Y185.887 E23.36418
G1 X56.706 Y186.578 E23.38754
G1 X56.941 Y187.712 E23.42606
G1 X57.21 Y188.732 E23.46115
G1 X57.535 Y189.616 E23.49247
G1 X57.934 Y190.464 E23.52364
G1 X58.417 Y191.29 E23.55547
G1 X58.811 Y191.898 E23.57956
G1 X59.453 Y192.838 E23.61743
G1 X60.069 Y193.646 E23.65122
G1 X60.706 Y194.338 E23.6825
G1 X61.399 Y194.969 E23.71367
G1 X62.147 Y195.537 E23.74491
G1 X62.738 Y195.945 E23.7688
G1 X63.7 Y196.576 E23.80706
G1 X64.645 Y197.124 E23.8434
G1 X65.466 Y197.501 E23.87344
G1 X66.35 Y197.816 E23.90466
G1 X67.258 Y198.052 E23.93586
G1 X67.978 Y198.205 E23.96034
G1 X69.054 Y198.409 E23.99677
G1 X69.879 Y198.53 E24.0245
G1 X70.815 Y198.587 E24.05569
G1 X71.543 Y198.599 E24.07991
G1 X148.507 Y198.599 E26.63974
G1 X149.161 Y198.589 E26.6615
G1 X149.959 Y198.546 E26.68808
G1 X150.887 Y198.42 E26.71922
G1 X151.588 Y198.293 E26.74292
G1 X152.721 Y198.057 E26.78141
G1 X153.741 Y197.787 E26.81651
G1 X154.625 Y197.462 E26.84783
G1 X155.505 Y197.045 E26.88022
G1 X156.283 Y196.587 E26.91025
G1 X156.922 Y196.173 E26.93557
G1 X157.814 Y195.565 E26.97148
G1 X158.681 Y194.903 E27.00776
G1 X159.344 Y194.29 E27.03779
G1 X159.975 Y193.594 E27.06904
G1 X160.542 Y192.847 E27.10023
G1 X160.95 Y192.255 E27.12414
G1 X161.565 Y191.318 E27.16142
G1 X162.124 Y190.355 E27.19845
G1 X162.501 Y189.534 E27.2285
G1 X162.816 Y188.65 E27.25971
G1 X163.052 Y187.742 E27.29092
G1 X163.253 Y186.784 E27.32348
G1 X163.408 Y185.959 E27.3514
G1 X163.53 Y185.124 E27.37946
G1 X163.587 Y184.188 E27.41065
G1 X163.599 Y183.456 E27.435
G1 X163.599 Y36.477 E32.32354
G1 X163.588 Y35.821 E32.34536
G1 X163.546 Y35.047 E32.37115
G1 X163.42 Y34.12 E32.40226
G1 X163.24 Y33.147 E32.43517
G1 X163.057 Y32.28 E32.46464
G1 X162.789 Y31.265 E32.49956
G1 X162.465 Y30.382 E32.53084
G1 X162.048 Y29.5 E32.56329
G1 X161.591 Y28.722 E32.5933
G1 X161.023 Y27.852 E32.62786
G1 X160.542 Y27.156 E32.656
G1 X159.915 Y26.336 E32.69033
G1 X159.276 Y25.645 E32.72164
G1 X158.58 Y25.015 E32.75286
G1 X157.832 Y24.449 E32.78406
G1 X157.09 Y23.939 E32.814
G1 X156.292 Y23.417 E32.84572
G1 X155.392 Y22.896 E32.88031
G1 X154.506 Y22.488 E32.91275
G1 X153.655 Y22.185 E32.9428
G1 X152.747 Y21.949 E32.974
G1 X152.024 Y21.795 E32.99859
G1 X150.94 Y21.59 E33.03528
G1 X150.121 Y21.47 E33.06281
G1 X149.185 Y21.413 E33.094
G1 X148.299 Y21.4 E33.12347
G1 X71.499 Y21.401 E35.67785
G1 X70.839 Y21.411 E35.6998
G1 X70.041 Y21.454 E35.72638
G1 X69.113 Y21.58 E35.75753
G1 X68.422 Y21.706 E35.78089
G1 X67.288 Y21.941 E35.81941
G1 X66.276 Y22.208 E35.85422
G1 X65.359 Y22.545 E35.88672
G1 X64.543 Y22.93 E35.91673
G1 X63.732 Y23.404 E35.94797
G1 X63.108 Y23.807 E35.97268
G1 X62.156 Y24.457 E36.01102
G1 X61.354 Y25.069 E36.04457
G1 X60.662 Y25.706 E36.07585
G1 X60.031 Y26.399 E36.10703
G1 X59.463 Y27.147 E36.13826
G1 X59.055 Y27.738 E36.16215
G1 X58.424 Y28.7 E36.20042
G1 X57.876 Y29.645 E36.23675
G0 F9000 X58.24 Y29.812
G1 F1800 X58.77 Y28.901 E36.2718
G1 X59.384 Y27.965 E36.30904
G1 X59.782 Y27.388 E36.33235
G1 X60.327 Y26.668 E36.36238
G1 X60.934 Y26 E36.3924
G1 X61.597 Y25.387 E36.42244
G1 X62.399 Y24.775 E36.45599
G1 X63.325 Y24.143 E36.49328
G1 X63.934 Y23.749 E36.5174
G1 X64.714 Y23.292 E36.54747
G1 X65.53 Y22.907 E36.57748
G1 X66.378 Y22.595 E36.60753
G1 X67.369 Y22.333 E36.64163
G1 X68.494 Y22.099 E36.67985
G1 X69.167 Y21.976 E36.7026
G1 X70.062 Y21.853 E36.73265
G1 X70.845 Y21.811 E36.75873
G1 X71.499 Y21.801 E36.78048
G1 X148.293 Y21.8 E39.33466
G1 X149.161 Y21.812 E39.36353
G1 X150.063 Y21.866 E39.39359
G1 X150.866 Y21.983 E39.42058
G1 X151.941 Y22.186 E39.45696
G1 X152.647 Y22.336 E39.48097
G1 X153.521 Y22.562 E39.511
G1 X154.372 Y22.865 E39.54104
G1 X155.192 Y23.242 E39.57106
G1 X156.073 Y23.752 E39.60492
G1 X156.864 Y24.269 E39.63635
G1 X157.591 Y24.768 E39.66567
G1 X158.312 Y25.312 E39.69571
G1 X158.983 Y25.917 E39.72576
G1 X159.597 Y26.579 E39.7558
G1 X160.213 Y27.383 E39.78948
G1 X160.688 Y28.071 E39.81729
G1 X161.246 Y28.925 E39.85122
G1 X161.703 Y29.703 E39.88123
G1 X162.09 Y30.52 E39.9113
G1 X162.402 Y31.367 E39.94132
G1 X162.666 Y32.363 E39.97559
G1 X162.847 Y33.22 E40.00472
G1 X163.024 Y34.174 E40.037
G1 X163.147 Y35.069 E40.06704
G1 X163.188 Y35.828 E40.09232
G1 X163.199 Y36.484 E40.11415
G1 X163.199 Y183.45 E45.00226
G1 X163.188 Y184.164 E45.02601
G1 X163.134 Y185.066 E45.05606
G1 X163.015 Y185.885 E45.08359
G1 X162.862 Y186.702 E45.11123
G1 X162.665 Y187.642 E45.14318
G1 X162.439 Y188.516 E45.1732
G1 X162.137 Y189.367 E45.20324
G1 X161.76 Y190.188 E45.23328
G1 X161.23 Y191.099 E45.26834
G1 X160.621 Y192.028 E45.30528
G1 X160.223 Y192.606 E45.32862
G1 X159.678 Y193.326 E45.35866
G1 X159.072 Y193.996 E45.38871
G1 X158.409 Y194.609 E45.41874
G1 X157.589 Y195.234 E45.45303
G1 X156.704 Y195.837 E45.48865
G1 X156.08 Y196.242 E45.51339
G1 X155.302 Y196.7 E45.54342
G1 X154.486 Y197.087 E45.57346
G1 X153.639 Y197.4 E45.60349
G1 X152.639 Y197.665 E45.6379
G1 X151.506 Y197.901 E45.67639
G1 X150.833 Y198.024 E45.69915
G1 X149.938 Y198.147 E45.72919
G1 X149.155 Y198.189 E45.75527
G1 X148.501 Y198.199 E45.77703
G1 X71.549 Y198.199 E48.33646
G1 X70.839 Y198.188 E48.36008
G1 X69.937 Y198.134 E48.39013
G1 X69.128 Y198.016 E48.41733
G1 X68.061 Y197.814 E48.45345
G1 X67.358 Y197.665 E48.47735
G1 X66.484 Y197.439 E48.50737
G1 X65.633 Y197.137 E48.53741
G1 X64.812 Y196.76 E48.56745
G1 X63.901 Y196.23 E48.60251
G1 X62.965 Y195.616 E48.63974
G1 X62.388 Y195.218 E48.66305
G1 X61.668 Y194.673 E48.69309
G1 X61 Y194.066 E48.72311
G1 X60.387 Y193.403 E48.75314
G1 X59.771 Y192.595 E48.78693
G1 X59.147 Y191.68 E48.82377
G1 X58.753 Y191.072 E48.84787
G1 X58.296 Y190.293 E48.87791
G1 X57.91 Y189.477 E48.90793
G1 X57.597 Y188.63 E48.93796
G1 X57.333 Y187.631 E48.97233
G1 X57.099 Y186.506 E49.01055
G1 X56.976 Y185.833 E49.0333
G1 X56.853 Y184.938 E49.06335
G1 X56.811 Y184.155 E49.08943
G1 X56.801 Y183.501 E49.11119
G1 X56.801 Y36.549 E53.99883
G1 X56.812 Y35.839 E54.02245
G1 X56.866 Y34.937 E54.0525
G1 X56.984 Y34.128 E54.07969
G1 X57.186 Y33.061 E54.11581
G1 X57.335 Y32.358 E54.13971
G1 X57.561 Y31.484 E54.16974
G1 X57.863 Y30.633 E54.19977
G1 X58.24 Y29.812 E54.22982
G1 F2400 E53.42982
;MESH:TUTUP CASING REV1.stl
G0 F9000 X71.572 Y37.278
G0 X74.04 Y40.52
;TYPE:WALL-INNER
G1 F2400 E54.22982
G1 F1800 X72.953 Y40.519 E54.26598
G1 X72.744 Y40.457 E54.27323
G1 X71.83 Y39.793 E54.3108
G1 X71.713 Y39.565 E54.31933
G1 X71.409 Y38.604 E54.35285
G1 X71.409 Y38.396 E54.35977
G1 X71.736 Y37.354 E54.39609
G1 X71.894 Y37.159 E54.40444
G1 X72.679 Y36.586 E54.43676
G1 X72.959 Y36.472 E54.44682
G1 X73.964 Y36.472 E54.48024
G1 X74.214 Y36.511 E54.48866
G1 X75.14 Y37.185 E54.52675
G1 X75.26 Y37.358 E54.53376
G1 X75.588 Y38.379 E54.56942
G1 X75.594 Y38.604 E54.57691
G1 X75.284 Y39.565 E54.6105
G1 X75.129 Y39.813 E54.62022
G1 X74.245 Y40.462 E54.6567
G1 X74.04 Y40.52 E54.66378
G1 F2400 E53.86378
G0 F9000 X74.363 Y40.59
G0 X79.808 Y59.365
G0 X87.636 Y77.6
G1 F2400 E54.66378
G1 F1800 X84.943 Y77.598 E54.75335
G1 X84.804 Y77.568 E54.75808
G1 X84.562 Y77.411 E54.76768
G1 X84.436 Y77.222 E54.77523
G1 X79.408 Y57.104 E55.46494
G1 X79.408 Y56.896 E55.47186
G1 X79.473 Y56.712 E55.47835
G1 X79.694 Y56.483 E55.48893
G1 X79.969 Y56.4 E55.49849
G1 X82.535 Y56.4 E55.58383
G1 X82.759 Y56.458 E55.59153
G1 X82.954 Y56.607 E55.59969
G1 X83.083 Y56.854 E55.60896
G1 X88.083 Y76.854 E56.29464
G1 X88.082 Y77.146 E56.30435
G1 X87.956 Y77.392 E56.31354
G1 X87.636 Y77.6 E56.32623
G1 F2400 E55.52623
G0 F9000 X88.257 Y77.191
G0 X89.242 Y77.188
G0 X92.521 Y77.6
G1 F2400 E56.32623
G1 F1800 X89.874 Y77.599 E56.41427
G1 X89.544 Y77.392 E56.42723
G1 X89.418 Y77.146 E56.43642
G1 X84.418 Y57.146 E57.1221
G1 X84.417 Y56.854 E57.13181
G1 X84.546 Y56.607 E57.14108
G1 X84.664 Y56.502 E57.14633
G1 X84.901 Y56.4 E57.15491
G1 X87.53 Y56.4 E57.24236
G1 X87.839 Y56.504 E57.2532
G1 X87.956 Y56.609 E57.25843
G1 X88.083 Y56.854 E57.26761
G1 X93.083 Y76.854 E57.95328
G1 X93.082 Y77.146 E57.96299
G1 X92.944 Y77.405 E57.97275
G1 X92.696 Y77.568 E57.98262
G1 X92.521 Y77.6 E57.98854
G1 F2400 E57.18854
G0 F9000 X93.257 Y77.191
G0 X94.242 Y77.188
G0 X97.569 Y77.6
G1 F2400 E57.98854
G1 F1800 X94.947 Y77.598 E58.07575
G1 X94.678 Y77.507 E58.0852
G1 X94.556 Y77.405 E58.09048
G1 X94.418 Y77.146 E58.10025
G1 X89.418 Y57.146 E58.78592
G1 X89.417 Y56.854 E58.79563
G1 X89.544 Y56.609 E58.80481
G1 X89.661 Y56.504 E58.81004
G1 X89.885 Y56.402 E58.81823
G1 X92.53 Y56.4 E58.9062
G1 X92.839 Y56.504 E58.91704
G1 X92.956 Y56.609 E58.92227
G1 X93.083 Y56.854 E58.93145
G1 X98.083 Y76.854 E59.61713
G1 X98.082 Y77.146 E59.62684
G1 X97.961 Y77.385 E59.63575
G1 X97.846 Y77.491 E59.64095
G1 X97.569 Y77.6 E59.65085
G1 F2400 E58.85085
G0 F9000 X98.257 Y77.191
G0 X99.242 Y77.189
G0 X102.637 Y77.6
G1 F2400 E59.65085
G1 F1800 X99.971 Y77.6 E59.73952
G1 X99.654 Y77.491 E59.75067
G1 X99.539 Y77.385 E59.75587
G1 X99.418 Y77.146 E59.76478
G1 X94.418 Y57.146 E60.45046
G1 X94.417 Y56.854 E60.46017
G1 X94.544 Y56.609 E60.46935
G1 X94.661 Y56.504 E60.47458
G1 X94.94 Y56.402 E60.48446
G1 X97.53 Y56.4 E60.5706
G1 X97.839 Y56.504 E60.58144
G1 X97.956 Y56.609 E60.58667
G1 X98.083 Y56.854 E60.59585
G1 X103.083 Y76.854 E61.28153
G1 X103.082 Y77.146 E61.29124
G1 X102.956 Y77.392 E61.30043
G1 X102.637 Y77.6 E61.3131
G1 F2400 E60.5131
G0 F9000 X103.257 Y77.191
G0 X104.242 Y77.188
G0 X107.521 Y77.6
G1 F2400 E61.3131
G1 F1800 X104.874 Y77.599 E61.40114
G1 X104.544 Y77.392 E61.41409
G1 X104.418 Y77.146 E61.42329
G1 X99.418 Y57.146 E62.10896
G1 X99.417 Y56.854 E62.11867
G1 X99.544 Y56.609 E62.12785
G1 X99.661 Y56.504 E62.13308
G1 X99.94 Y56.402 E62.14296
G1 X102.53 Y56.4 E62.22911
G1 X102.839 Y56.504 E62.23995
G1 X102.956 Y56.609 E62.24518
G1 X103.083 Y56.854 E62.25436
G1 X108.083 Y76.854 E62.94003
G1 X108.1 Y77.034 E62.94605
G1 X107.999 Y77.334 E62.95657
G1 X107.749 Y77.547 E62.9675
G1 X107.521 Y77.6 E62.97528
G1 F2400 E62.17528
G0 F9000 X108.056 Y77.434
G0 X107.694 Y74.636
G0 X112.185 Y75.116
G0 X112.416 Y77.599
G1 F2400 E62.97528
G1 F1800 X112.13 Y77.474 E62.98566
G1 X112.001 Y77.334 E62.992
G1 X111.9 Y77.034 E63.00252
G1 X111.917 Y76.854 E63.00854
G1 X116.917 Y56.854 E63.69421
G1 X117.044 Y56.609 E63.70339
G1 X117.161 Y56.504 E63.70862
G1 X117.44 Y56.402 E63.7185
G1 X120.03 Y56.4 E63.80464
G1 X120.339 Y56.504 E63.81549
G1 X120.456 Y56.609 E63.82072
G1 X120.583 Y56.854 E63.8299
G1 X120.601 Y57.072 E63.83717
G1 X115.582 Y77.146 E64.52539
G1 X115.456 Y77.392 E64.53458
G1 X115.338 Y77.496 E64.53981
G1 X115.035 Y77.6 E64.55047
G1 X112.416 Y77.599 E64.63757
G1 F2400 E63.83757
G0 F9000 X115.344 Y77.441
G0 X115.758 Y77.188
G0 X116.743 Y77.19
G0 X117.424 Y77.601
G1 F2400 E64.63757
G1 F1800 X117.239 Y77.541 E64.64404
G1 X117.044 Y77.392 E64.65221
G1 X116.918 Y77.146 E64.6614
G1 X116.898 Y76.928 E64.66868
G1 X121.917 Y56.854 E65.3569
G1 X122.044 Y56.609 E65.36607
G1 X122.161 Y56.504 E65.3713
G1 X122.44 Y56.402 E65.38118
G1 X125.03 Y56.4 E65.46733
G1 X125.339 Y56.504 E65.47817
G1 X125.456 Y56.609 E65.4834
G1 X125.583 Y56.854 E65.49258
G1 X125.601 Y57.072 E65.49985
G1 X120.582 Y77.146 E66.18807
G1 X120.461 Y77.385 E66.19698
G1 X120.141 Y77.6 E66.2098
G1 X117.424 Y77.601 E66.30017
G1 F2400 E65.50017
G0 F9000 X120.344 Y77.441
G0 X120.758 Y77.189
G0 X121.743 Y77.19
G0 X122.431 Y77.6
G1 F2400 E66.30017
G1 F1800 X122.154 Y77.491 E66.31007
G1 X122.039 Y77.385 E66.31527
G1 X121.918 Y77.146 E66.32418
G1 X121.898 Y76.928 E66.33146
G1 X126.917 Y56.854 E67.01968
G1 X127.044 Y56.609 E67.02886
G1 X127.161 Y56.504 E67.03409
G1 X127.44 Y56.402 E67.04397
G1 X130.03 Y56.4 E67.13011
G1 X130.339 Y56.504 E67.14095
G1 X130.456 Y56.609 E67.14618
G1 X130.583 Y56.854 E67.15536
