;FLAVOR:Marlin
;TIME:2100
;Filament used: 2.11393m
;Layer height: 0.2
;MINX:76.739
;MINY:76.815
;MINZ:0.2
;MAXX:143.261
;MAXY:143.185
;MAXZ:8
;TARGET_MACHINE.NAME:Creality Ender-3 V3 SE
;Generated with Cura_SteamEngine 5.10.0
M220 S100 ;Reset Feedrate
M221 S100 ;Reset Flowrate

G28 ;Home

M420 S1; Use saved mesh leveling data

G92 E0 ;Reset Extruder
G1 Z2.0 F3000 ;Move Z Axis up
G1 X-3 Y20 Z0.28 F5000.0 ;Move to start position
M190 S0 ; Set bed temperature and wait
M109 S228 ; Set hotend temperature and wait
G1 X-3 Y100.0 Z0.28 F1500.0 E15 ;Draw the first line
G1 X-2 Y100.0 Z0.28 F5000.0 ;Move to side a little
G1 X-2 Y20 Z0.28 F1500.0 E30 ;Draw the second line
G92 E0 ;Reset Extruder
G1 E-1.0000 F1800 ;Retract a bit
G1 Z2.0 F3000 ;Move Z Axis up
G1 E0.0000 F1800 

M82 ;absolute extrusion mode
G92 E0
G92 E0
G1 F2400 E-0.8
;LAYER_COUNT:40
;LAYER:0
M107
G0 F9000 X82.014 Y82.074 Z0.2
;TYPE:SKIRT
G1 F2400 E0
G1 F1800 X82.709 Y81.425 E0.03163
G1 X83.259 Y80.94 E0.05602
G1 X83.984 Y80.356 E0.08698
G1 X84.454 Y80.028 E0.10604
G1 X85.128 Y79.593 E0.13272
G1 X85.941 Y79.101 E0.16433
G1 X86.761 Y78.654 E0.19539
G1 X87.453 Y78.344 E0.22061
G1 X88.382 Y77.973 E0.25388
G1 X89.052 Y77.727 E0.27762
G1 X89.969 Y77.437 E0.30961
G1 X90.578 Y77.292 E0.33043
G1 X91.523 Y77.103 E0.36249
G1 X92.272 Y76.975 E0.38776
G1 X93.168 Y76.863 E0.41779
G1 X93.765 Y76.829 E0.43768
G1 X94.534 Y76.815 E0.46326
G1 X95.506 Y76.825 E0.49559
G1 X95.997 Y76.842 E0.51193
G1 X98.602 Y76.989 E0.59871
G1 X101.143 Y77.062 E0.68326
G1 X103.633 Y77.064 E0.76608
G1 X106.163 Y76.993 E0.85026
G1 X107.548 Y76.916 E0.8964
G1 X107.769 Y76.912 E0.90375
G1 X108.989 Y76.841 E0.9444
G1 X109.665 Y76.818 E0.96689
G1 X111.025 Y76.825 E1.01213
G1 X111.496 Y76.841 E1.0278
G1 X113.931 Y76.974 E1.10891
G1 X116.468 Y77.046 E1.19333
G1 X118.957 Y77.046 E1.27611
G1 X121.509 Y76.974 E1.36102
G1 X124.047 Y76.839 E1.44556
G1 X124.661 Y76.819 E1.46599
G1 X125.106 Y76.815 E1.48079
G1 X126.085 Y76.828 E1.51336
G1 X127.018 Y76.881 E1.54444
G1 X127.728 Y76.975 E1.56826
G1 X128.621 Y77.13 E1.5984
G1 X129.398 Y77.288 E1.62478
G1 X130.302 Y77.512 E1.65575
G1 X130.843 Y77.687 E1.67466
G1 X131.579 Y77.957 E1.70074
G1 X132.526 Y78.338 E1.73469
G1 X133.374 Y78.723 E1.76566
G1 X133.926 Y79.022 E1.78654
G1 X134.561 Y79.401 E1.81114
G1 X135.412 Y79.942 E1.84468
G1 X136.176 Y80.476 E1.87568
G1 X136.677 Y80.882 E1.89713
G1 X137.255 Y81.394 E1.92281
G1 X137.971 Y82.063 E1.9554
G1 X138.624 Y82.73 E1.98645
G1 X139.087 Y83.281 E2.01039
G1 X139.667 Y84.03 E2.0419
G1 X140.126 Y84.661 E2.06785
G1 X140.656 Y85.46 E2.09974
G1 X140.899 Y85.887 E2.11608
G1 X141.265 Y86.588 E2.14238
G1 X141.699 Y87.484 E2.17549
G1 X142.057 Y88.313 E2.20553
G1 X142.319 Y89.07 E2.23217
G1 X142.587 Y89.975 E2.26356
G1 X142.778 Y90.692 E2.28824
G1 X142.973 Y91.573 E2.31825
G1 X143.068 Y92.217 E2.33991
G1 X143.155 Y93.02 E2.36677
G1 X143.228 Y93.94 E2.39747
G1 X143.261 Y94.843 E2.42752
G1 X143.239 Y95.475 E2.44855
G1 X143.159 Y96.772 E2.49177
G1 X143.031 Y99.386 E2.57882
G1 X142.978 Y101.901 E2.66249
G1 X142.998 Y104.392 E2.74534
G1 X143.089 Y106.953 E2.83057
G1 X143.242 Y109.451 E2.91381
G1 X143.239 Y110.776 E2.95788
G1 X143.163 Y111.997 E2.99857
G1 X143.035 Y114.597 E3.08515
G1 X142.982 Y117.107 E3.16865
G1 X143.001 Y119.626 E3.25244
G1 X143.092 Y122.158 E3.33671
G1 X143.241 Y124.584 E3.41755
G1 X143.239 Y125.908 E3.46159
G1 X143.178 Y126.735 E3.48917
G1 X143.076 Y127.701 E3.52147
G1 X142.942 Y128.594 E3.55151
G1 X142.788 Y129.275 E3.57473
G1 X142.6 Y129.983 E3.59909
G1 X142.326 Y130.902 E3.63099
G1 X142.031 Y131.756 E3.66104
G1 X141.755 Y132.399 E3.68431
G1 X141.443 Y133.053 E3.70842
G1 X141.005 Y133.913 E3.74051
G1 X140.559 Y134.698 E3.77054
G1 X140.194 Y135.248 E3.7925
G1 X139.729 Y135.889 E3.81884
G1 X139.129 Y136.666 E3.85149
G1 X138.505 Y137.402 E3.88358
G1 X137.986 Y137.926 E3.90811
G1 X137.291 Y138.575 E3.93974
G1 X136.741 Y139.06 E3.96413
G1 X136.016 Y139.644 E3.99509
G1 X135.557 Y139.965 E4.01372
G1 X134.891 Y140.394 E4.04007
G1 X134.051 Y140.901 E4.0727
G1 X133.207 Y141.36 E4.10466
G1 X132.663 Y141.607 E4.12453
G1 X131.902 Y141.919 E4.15189
G1 X131.001 Y142.255 E4.18387
G1 X130.141 Y142.533 E4.21393
G1 X129.422 Y142.708 E4.23854
G1 X128.5 Y142.893 E4.26982
G1 X127.766 Y143.02 E4.29459
G1 X126.871 Y143.134 E4.3246
G1 X126.267 Y143.17 E4.34473
G1 X125.466 Y143.185 E4.37137
G1 X124.496 Y143.175 E4.40364
G1 X124.024 Y143.159 E4.41935
G1 X121.589 Y143.026 E4.50045
G1 X119.05 Y142.954 E4.58494
G1 X116.561 Y142.954 E4.66772
G1 X113.986 Y143.027 E4.7534
G1 X111.212 Y143.172 E4.84579
G1 X110.428 Y143.185 E4.87187
G1 X109.436 Y143.172 E4.90487
G1 X108.476 Y143.118 E4.93685
G1 X107.905 Y143.045 E4.95599
G1 X107.154 Y142.919 E4.98132
G1 X106.166 Y142.724 E5.01481
G1 X105.289 Y142.51 E5.04484
G1 X104.527 Y142.26 E5.07151
G1 X103.669 Y141.938 E5.10199
G1 X102.981 Y141.659 E5.12669
G1 X102.134 Y141.272 E5.15766
G1 X101.626 Y140.996 E5.17689
G1 X100.952 Y140.597 E5.20294
G1 X100.121 Y140.07 E5.23567
G1 X99.334 Y139.519 E5.26762
G1 X98.868 Y139.14 E5.2876
G1 X98.316 Y138.655 E5.31204
G1 X97.557 Y137.949 E5.34652
G1 X96.635 Y136.973 E5.39117
G1 X95.211 Y135.257 E5.46534
G1 X93.559 Y133.37 E5.54875
G1 X91.804 Y131.474 E5.63468
G1 X90.052 Y129.684 E5.71799
G1 X88.284 Y127.979 E5.79968
G1 X86.38 Y126.242 E5.8854
G1 X84.478 Y124.602 E5.96893
G1 X84.079 Y124.274 E5.98611
G1 X83.463 Y123.745 E6.01312
G1 X82.426 Y122.788 E6.06005
G1 X81.772 Y122.121 E6.09112
G1 X81.29 Y121.548 E6.11603
G1 X80.723 Y120.814 E6.14688
G1 X80.264 Y120.183 E6.17283
G1 X79.732 Y119.378 E6.20492
G1 X79.33 Y118.657 E6.23238
G1 X79.122 Y118.252 E6.24752
G1 X78.694 Y117.369 E6.28016
G1 X78.319 Y116.496 E6.31176
G1 X78.1 Y115.864 E6.33401
G1 X77.887 Y115.161 E6.35844
G1 X77.629 Y114.214 E6.39108
G1 X77.417 Y113.275 E6.4231
G1 X77.325 Y112.659 E6.44382
G1 X77.242 Y111.906 E6.46901
G1 X77.162 Y110.91 E6.50225
G1 X77.135 Y109.649 E6.5442
G1 X77.199 Y107.916 E6.60188
G1 X77.245 Y105.357 E6.687
G1 X77.22 Y102.874 E6.76959
G1 X77.122 Y100.329 E6.8543
G1 X76.862 Y96.739 E6.97402
G1 X76.773 Y95.645 E7.01052
G1 X76.739 Y94.742 E7.04058
G1 X76.761 Y94.092 E7.06221
G1 X76.822 Y93.264 E7.08982
G1 X76.924 Y92.299 E7.1221
G1 X77.058 Y91.406 E7.15213
G1 X77.211 Y90.731 E7.17515
G1 X77.407 Y90.002 E7.20026
G1 X77.677 Y89.092 E7.23183
G1 X77.982 Y88.212 E7.26281
G1 X78.245 Y87.598 E7.28503
G1 X78.567 Y86.928 E7.30975
G1 X79.018 Y86.047 E7.34267
G1 X79.465 Y85.262 E7.37271
G1 X79.848 Y84.69 E7.39561
G1 X80.271 Y84.111 E7.41946
G1 X80.871 Y83.334 E7.45211
G1 X81.495 Y82.598 E7.4842
G1 X82.014 Y82.074 E7.50873
G0 F9000 X82.287 Y82.366
G1 F1800 X82.973 Y81.725 E7.53996
G1 X83.51 Y81.252 E7.56376
G1 X84.235 Y80.668 E7.59473
G1 X84.671 Y80.364 E7.6124
G1 X85.335 Y79.935 E7.6387
G1 X86.133 Y79.452 E7.66972
G1 X86.925 Y79.019 E7.69974
G1 X87.617 Y78.709 E7.72496
G1 X88.52 Y78.348 E7.75731
G1 X89.173 Y78.108 E7.78045
G1 X90.062 Y77.826 E7.81147
G1 X90.657 Y77.684 E7.83181
G1 X91.59 Y77.497 E7.86346
G1 X92.322 Y77.372 E7.88816
G1 X93.218 Y77.26 E7.91819
G1 X93.772 Y77.229 E7.93665
G1 X94.53 Y77.215 E7.96186
G1 X95.493 Y77.225 E7.9939
G1 X95.974 Y77.241 E8.0099
G1 X98.591 Y77.389 E8.09708
G1 X101.132 Y77.462 E8.18163
G1 X103.644 Y77.464 E8.26518
G1 X106.174 Y77.393 E8.34936
G1 X107.57 Y77.315 E8.39587
G1 X107.775 Y77.312 E8.40269
G1 X109.003 Y77.241 E8.4436
G1 X109.663 Y77.218 E8.46556
G1 X111.012 Y77.225 E8.51043
G1 X111.474 Y77.24 E8.52581
G1 X113.92 Y77.374 E8.60728
G1 X116.457 Y77.446 E8.6917
G1 X118.968 Y77.446 E8.77521
G1 X121.52 Y77.374 E8.86013
G1 X124.06 Y77.239 E8.94473
G1 X124.665 Y77.219 E8.96486
G1 X125.101 Y77.215 E8.97936
G1 X126.062 Y77.227 E9.01133
G1 X126.995 Y77.28 E9.04241
G1 X127.66 Y77.369 E9.06472
G1 X128.542 Y77.522 E9.0945
G1 X129.302 Y77.676 E9.12029
G1 X130.179 Y77.893 E9.15034
G1 X130.706 Y78.063 E9.16876
G1 X131.43 Y78.328 E9.1944
G1 X132.361 Y78.702 E9.22777
G1 X133.184 Y79.075 E9.25782
G1 X133.721 Y79.365 E9.27812
G1 X134.347 Y79.739 E9.30237
G1 X135.183 Y80.27 E9.33531
G1 X135.947 Y80.804 E9.36632
G1 X136.412 Y81.182 E9.38625
G1 X136.982 Y81.686 E9.41155
G1 X137.685 Y82.343 E9.44356
G1 X138.338 Y83.01 E9.4746
G1 X138.771 Y83.526 E9.49701
G1 X139.344 Y84.265 E9.52811
G1 X139.793 Y84.882 E9.55349
G1 X140.308 Y85.658 E9.58447
G1 X140.551 Y86.085 E9.60081
G1 X140.905 Y86.762 E9.62622
G1 X141.332 Y87.643 E9.65878
G1 X141.69 Y88.472 E9.68881
G1 X141.935 Y89.184 E9.71386
G1 X142.203 Y90.089 E9.74525
G1 X142.387 Y90.778 E9.76897
G1 X142.582 Y91.659 E9.79898
G1 X142.67 Y92.26 E9.81918
G1 X142.756 Y93.052 E9.84568
G1 X142.828 Y93.955 E9.87581
G1 X142.861 Y94.858 E9.90586
G1 X142.84 Y95.45 E9.92557
G1 X142.759 Y96.752 E9.96895
G1 X142.631 Y99.366 E10.056
G1 X142.578 Y101.893 E10.14007
G1 X142.598 Y104.406 E10.22365
G1 X142.689 Y106.967 E10.30889
G1 X142.842 Y109.45 E10.39163
G1 X142.84 Y110.751 E10.4349
G1 X142.763 Y111.977 E10.47576
G1 X142.635 Y114.577 E10.56234
G1 X142.582 Y117.099 E10.64624
G1 X142.601 Y119.64 E10.73075
G1 X142.692 Y122.172 E10.81502
G1 X142.841 Y124.584 E10.8954
G1 X142.84 Y125.879 E10.93847
G1 X142.78 Y126.693 E10.96562
G1 X142.68 Y127.642 E10.99736
G1 X142.546 Y128.535 E11.02739
G1 X142.401 Y129.172 E11.04912
G1 X142.213 Y129.88 E11.07348
G1 X141.948 Y130.771 E11.1044
G1 X141.653 Y131.625 E11.13445
G1 X141.394 Y132.227 E11.15625
G1 X141.087 Y132.871 E11.17998
G1 X140.657 Y133.715 E11.21148
G1 X140.211 Y134.5 E11.24151
G1 X139.87 Y135.013 E11.262
G1 X139.412 Y135.645 E11.28796
G1 X138.824 Y136.408 E11.32
G1 X138.221 Y137.121 E11.35106
G1 X137.713 Y137.634 E11.37507
G1 X137.027 Y138.275 E11.4063
G1 X136.49 Y138.748 E11.4301
G1 X135.765 Y139.332 E11.46106
G1 X135.34 Y139.629 E11.47831
G1 X134.684 Y140.052 E11.50427
G1 X133.86 Y140.55 E11.53629
G1 X133.042 Y140.996 E11.56728
G1 X132.511 Y141.237 E11.58667
G1 X131.762 Y141.544 E11.6136
G1 X130.878 Y141.874 E11.64498
G1 X130.018 Y142.152 E11.67504
G1 X129.343 Y142.316 E11.69815
G1 X128.432 Y142.499 E11.72905
G1 X127.715 Y142.623 E11.75325
G1 X126.82 Y142.737 E11.78326
G1 X126.259 Y142.77 E11.80195
G1 X125.47 Y142.785 E11.8282
G1 X124.509 Y142.775 E11.86016
G1 X124.046 Y142.76 E11.87557
G1 X121.6 Y142.626 E11.95705
G1 X119.061 Y142.554 E12.04153
G1 X116.55 Y142.554 E12.12505
G1 X113.975 Y142.627 E12.21073
G1 X111.205 Y142.772 E12.30298
G1 X110.433 Y142.785 E12.32866
G1 X109.458 Y142.773 E12.36109
G1 X108.527 Y142.721 E12.39211
G1 X107.971 Y142.65 E12.41075
G1 X107.232 Y142.527 E12.43567
G1 X106.261 Y142.335 E12.46859
G1 X105.384 Y142.121 E12.49861
G1 X104.667 Y141.885 E12.52372
G1 X103.819 Y141.567 E12.55384
G1 X103.147 Y141.295 E12.57795
G1 X102.3 Y140.908 E12.60893
G1 X101.83 Y140.652 E12.62673
G1 X101.166 Y140.259 E12.65239
G1 X100.35 Y139.742 E12.68452
G1 X99.586 Y139.208 E12.71552
G1 X99.132 Y138.84 E12.73496
G1 X98.588 Y138.362 E12.75905
G1 X97.848 Y137.674 E12.79265
G1 X96.926 Y136.698 E12.83731
G1 X95.519 Y135.002 E12.9106
G1 X93.853 Y133.098 E12.99475
G1 X92.098 Y131.202 E13.08068
G1 X90.338 Y129.404 E13.16436
G1 X88.554 Y127.683 E13.24681
G1 X86.65 Y125.946 E13.33253
G1 X84.739 Y124.299 E13.41644
G1 X84.339 Y123.97 E13.43366
G1 X83.734 Y123.451 E13.46018
G1 X82.712 Y122.508 E13.50643
G1 X82.058 Y121.841 E13.5375
G1 X81.606 Y121.303 E13.56087
G1 X81.046 Y120.579 E13.59131
G1 X80.597 Y119.962 E13.61669
G1 X80.081 Y119.183 E13.64777
G1 X79.686 Y118.475 E13.67473
G1 X79.482 Y118.077 E13.68961
G1 X79.062 Y117.211 E13.72162
G1 X78.687 Y116.338 E13.75322
G1 X78.483 Y115.748 E13.77399
G1 X78.273 Y115.056 E13.79804
G1 X78.019 Y114.126 E13.8301
G1 X77.813 Y113.216 E13.86114
G1 X77.723 Y112.615 E13.88135
G1 X77.641 Y111.874 E13.90614
G1 X77.562 Y110.901 E13.93861
G1 X77.535 Y109.664 E13.97977
G1 X77.599 Y107.931 E14.03744
G1 X77.645 Y105.364 E14.12284
G1 X77.62 Y102.87 E14.20579
G1 X77.522 Y100.314 E14.29087
G1 X77.261 Y96.71 E14.41105
G1 X77.173 Y95.63 E14.44709
G1 X77.139 Y94.727 E14.47715
G1 X77.16 Y94.121 E14.49731
G1 X77.22 Y93.306 E14.52449
G1 X77.32 Y92.358 E14.5562
G1 X77.454 Y91.465 E14.58623
G1 X77.597 Y90.835 E14.60772
G1 X77.79 Y90.116 E14.63248
G1 X78.055 Y89.223 E14.66346
G1 X78.35 Y88.369 E14.69351
G1 X78.606 Y87.771 E14.71515
G1 X78.923 Y87.11 E14.73953
G1 X79.366 Y86.245 E14.77185
G1 X79.813 Y85.46 E14.8019
G1 X80.171 Y84.926 E14.82328
G1 X80.588 Y84.355 E14.8468
G1 X81.176 Y83.592 E14.87884
G1 X81.779 Y82.879 E14.9099
G1 X82.287 Y82.366 E14.93391
G0 F9000 X82.56 Y82.658
G1 F1800 X83.238 Y82.025 E14.96476
G1 X83.761 Y81.563 E14.98797
G1 X84.464 Y80.996 E15.01801
G1 X84.888 Y80.7 E15.03521
G1 X85.542 Y80.277 E15.06111
G1 X86.325 Y79.803 E15.09156
G1 X87.117 Y79.37 E15.12158
G1 X87.765 Y79.08 E15.14519
G1 X88.658 Y78.723 E15.17718
G1 X89.294 Y78.489 E15.19972
G1 X90.155 Y78.215 E15.22977
G1 X90.736 Y78.076 E15.24964
G1 X91.657 Y77.891 E15.28088
G1 X92.372 Y77.769 E15.30501
G1 X93.268 Y77.657 E15.33504
G1 X93.78 Y77.629 E15.3521
G1 X94.526 Y77.615 E15.37691
G1 X95.48 Y77.625 E15.40864
G1 X95.951 Y77.64 E15.42432
G1 X98.58 Y77.789 E15.5119
G1 X101.121 Y77.862 E15.59645
G1 X103.655 Y77.864 E15.68073
G1 X106.185 Y77.793 E15.76491
G1 X107.592 Y77.714 E15.81178
G1 X107.781 Y77.712 E15.81807
G1 X109.017 Y77.641 E15.85925
G1 X109.661 Y77.618 E15.88068
G1 X111 Y77.625 E15.92521
G1 X111.452 Y77.639 E15.94026
G1 X113.909 Y77.774 E16.0221
G1 X116.446 Y77.846 E16.10651
G1 X118.979 Y77.846 E16.19076
G1 X121.531 Y77.774 E16.27568
G1 X124.073 Y77.639 E16.36034
G1 X124.669 Y77.619 E16.38018
G1 X125.096 Y77.615 E16.39438
G1 X126.04 Y77.626 E16.42578
G1 X126.942 Y77.676 E16.45582
G1 X127.592 Y77.763 E16.47764
G1 X128.463 Y77.914 E16.50704
G1 X129.206 Y78.064 E16.53225
G1 X130.083 Y78.281 E16.5623
G1 X130.569 Y78.439 E16.5793
G1 X131.281 Y78.699 E16.60451
G1 X132.196 Y79.066 E16.6373
G1 X133.019 Y79.439 E16.66735
G1 X133.516 Y79.709 E16.68616
G1 X134.133 Y80.077 E16.71006
G1 X134.954 Y80.598 E16.7424
G1 X135.695 Y81.115 E16.77245
G1 X136.147 Y81.482 E16.79181
G1 X136.709 Y81.978 E16.81674
G1 X137.4 Y82.623 E16.84818
G1 X138.032 Y83.267 E16.87819
G1 X138.455 Y83.771 E16.90008
G1 X139.021 Y84.501 E16.9308
G1 X139.46 Y85.103 E16.95558
G1 X139.96 Y85.856 E16.98565
G1 X140.203 Y86.283 E17.00199
G1 X140.545 Y86.937 E17.02653
G1 X140.965 Y87.802 E17.05852
G1 X141.323 Y88.631 E17.08855
G1 X141.551 Y89.298 E17.11199
G1 X141.819 Y90.203 E17.14339
G1 X141.996 Y90.864 E17.16615
G1 X142.191 Y91.745 E17.19616
G1 X142.272 Y92.303 E17.21491
G1 X142.357 Y93.084 E17.24104
G1 X142.428 Y93.97 E17.2706
G1 X142.461 Y94.873 E17.30066
G1 X142.441 Y95.425 E17.31903
G1 X142.359 Y96.732 E17.36259
G1 X142.231 Y99.346 E17.44963
G1 X142.178 Y101.885 E17.5341
G1 X142.198 Y104.42 E17.61842
G1 X142.289 Y106.981 E17.70365
G1 X142.442 Y109.45 E17.78592
G1 X142.441 Y110.726 E17.82836
G1 X142.363 Y111.957 E17.86939
G1 X142.235 Y114.557 E17.95597
G1 X142.182 Y117.091 E18.04027
G1 X142.201 Y119.654 E18.12552
G1 X142.292 Y122.186 E18.20979
G1 X142.441 Y124.584 E18.2897
G1 X142.441 Y125.85 E18.33181
G1 X142.382 Y126.651 E18.35852
G1 X142.284 Y127.583 E18.38969
G1 X142.15 Y128.476 E18.41972
G1 X142.015 Y129.069 E18.43995
G1 X141.829 Y129.766 E18.46395
G1 X141.57 Y130.64 E18.49426
G1 X141.275 Y131.494 E18.52432
G1 X141.033 Y132.055 E18.54464
G1 X140.731 Y132.689 E18.56799
G1 X140.309 Y133.517 E18.5989
G1 X139.863 Y134.302 E18.62893
G1 X139.546 Y134.778 E18.64795
G1 X139.095 Y135.401 E18.67353
G1 X138.518 Y136.15 E18.70498
G1 X137.936 Y136.84 E18.735
G1 X137.44 Y137.342 E18.75848
G1 X136.762 Y137.975 E18.78933
G1 X136.239 Y138.437 E18.81254
G1 X135.536 Y139.004 E18.84258
G1 X135.123 Y139.293 E18.85934
G1 X134.477 Y139.71 E18.88492
G1 X133.668 Y140.199 E18.91636
G1 X132.876 Y140.632 E18.94638
G1 X132.36 Y140.867 E18.96524
G1 X131.622 Y141.169 E18.99176
G1 X130.755 Y141.493 E19.02254
G1 X129.895 Y141.771 E19.0526
G1 X129.264 Y141.924 E19.0742
G1 X128.364 Y142.105 E19.10473
G1 X127.664 Y142.226 E19.12836
G1 X126.769 Y142.34 E19.15837
G1 X126.251 Y142.37 E19.17563
G1 X125.474 Y142.385 E19.20147
G1 X124.521 Y142.375 E19.23317
G1 X124.068 Y142.361 E19.24825
G1 X121.611 Y142.226 E19.33009
G1 X119.072 Y142.154 E19.41457
